X:772
T:Danse des Paysans, Bergen. [5]
T:peasant dance from the Bj\/orgvin Diocese, Norway
C:John Malchair's Third Collection of Tunes
F:https://www.vwml.org/record/Malchair/3619/p77
F:www.vwml.org/topics/historic-dance-and-tune-books/Malchair
Z:Eric Conrad Mar 2020
N:No title in MS.  See also note below
W:Note: The manuscript has a C clef on line 1 immediately before the G clef.
M:2/4
L:1/8
Q:"Grave."
K:Cm
P:A
|: G=B/G/ {(c d)} ee/c/ | df/d/ {d}e z | G^B/G/ {(c d)} ee/c/ | ed/=B/ G z :|
P:B
D>F EC/E/ | D>F EC/E/ | D>F E/D/C/=B,/ | {B,}C2 z2 |]

